optimized/24/outline/text-field.svg

<svg viewBox="0 0 24 24" xmlns="http://www.w3.org/2000/svg" fill="currentColor" data-slot="icon">
  <g clip-path="url(#clip0_2117_12138)">
    <path d="M8 6.75C7.58579 6.75 7.25 7.08579 7.25 7.5C7.25 7.91421 7.58579 8.25 8 8.25H11.25V15.75H8C7.58579 15.75 7.25 16.0858 7.25 16.5C7.25 16.9142 7.58579 17.25 8 17.25H16C16.4142 17.25 16.75 16.9142 16.75 16.5C16.75 16.0858 16.4142 15.75 16 15.75H12.75V8.25H16C16.4142 8.25 16.75 7.91421 16.75 7.5C16.75 7.08579 16.4142 6.75 16 6.75H8Z"/>
    <path fill-rule="evenodd" clip-rule="evenodd" d="M3 6C3 4.34315 4.34315 3 6 3H18C19.6569 3 21 4.34315 21 6V18C21 19.6569 19.6569 21 18 21H6C4.34315 21 3 19.6569 3 18V6ZM6 4.5H18C18.8284 4.5 19.5 5.17157 19.5 6V18C19.5 18.8284 18.8284 19.5 18 19.5H6C5.17157 19.5 4.5 18.8284 4.5 18V6C4.5 5.17157 5.17157 4.5 6 4.5Z"/>
  </g>
  <defs>
    <clipPath id="clip0_2117_12138">
      <rect width="24" height="24"/>
    </clipPath>
  </defs>
</svg>

<svg xmlns="http://www.w3.org/2000/svg" viewBox="0 0 24 24" fill="currentColor" data-slot="icon">
  <g clip-path="url(#a)">
    <path d="M8 6.75a.75.75 0 0 0 0 1.5h3.25v7.5H8a.75.75 0 0 0 0 1.5h8a.75.75 0 0 0 0-1.5h-3.25v-7.5H16a.75.75 0 0 0 0-1.5H8Z"/>
    <path fill-rule="evenodd" d="M3 6a3 3 0 0 1 3-3h12a3 3 0 0 1 3 3v12a3 3 0 0 1-3 3H6a3 3 0 0 1-3-3V6Zm3-1.5h12A1.5 1.5 0 0 1 19.5 6v12a1.5 1.5 0 0 1-1.5 1.5H6A1.5 1.5 0 0 1 4.5 18V6A1.5 1.5 0 0 1 6 4.5Z" clip-rule="evenodd"/>
  </g>
  <defs>
    <clipPath id="a">
      <rect width="24" height="24"/>
    </clipPath>
  </defs>
</svg>
